source/images/favicon.svg

<?xml version="1.0" encoding="UTF-8" ?>
<svg width="450px" height="450px" viewBox="0 0 450 450">
  <path d="M113.169897,234.982802 L113.169897,179.550542 C113.169897,172.364842 113.362368,163.896109 113.747316,154.144089 C114.132264,144.392069 114.581364,135.923336 115.094628,128.737636 L113.554843,128.737636 C110.475257,135.153439 107.267404,141.440832 103.931187,147.600003 C100.594969,153.759174 97.1304874,160.17488 93.5376378,166.847315 L48.8838726,234.982802 L113.169897,234.982802 Z M185.539792,269.243018 L154.744092,269.243018 L154.744092,332.374203 L113.169897,332.374203 L113.169897,269.243018 L5,269.243018 L5,239.21721 L102.006455,87.5483875 L154.744092,87.5483875 L154.744092,234.982802 L185.539792,234.982802 L185.539792,269.243018 Z M260.219365,205.34194 C260.219365,219.969971 261.759134,233.186327 264.83872,244.991404 C267.918305,256.796482 272.280985,266.804984 277.926892,275.017212 C283.572799,283.22944 290.373448,289.516832 298.329043,293.879578 C306.284639,298.242324 315.266628,300.423664 325.275281,300.423664 C335.283934,300.423664 344.265923,298.242324 352.221519,293.879578 C360.177114,289.516832 366.977763,283.22944 372.62367,275.017212 C378.269576,266.804984 382.632257,256.796482 385.711842,244.991404 C388.791428,233.186327 390.331197,219.969971 390.331197,205.34194 C390.331197,177.112407 384.492904,154.978219 372.816143,138.938712 C361.139382,122.899205 345.292586,114.879571 325.275281,114.879571 C305.257976,114.879571 289.41118,122.899205 277.734419,138.938712 C266.057658,154.978219 260.219365,177.112407 260.219365,205.34194 L260.219365,205.34194 Z M445.763458,391.27098 C441.400712,393.324037 435.75489,394.99212 428.825823,396.275281 C421.896755,397.558442 414.069593,398.200012 405.344101,398.200012 C380.194154,398.200012 359.150636,392.297562 342.212916,380.492485 C325.275196,368.687407 312.700411,353.546339 304.488183,335.068827 C290.886681,332.759138 278.568524,328.075672 267.533343,321.018289 C256.498162,313.960906 247.002916,304.914759 239.047321,293.879578 C231.091725,282.844397 224.996804,269.88467 220.762374,255.000007 C216.527944,240.115344 214.410761,223.562821 214.410761,205.34194 C214.410761,185.068003 217.105357,166.911553 222.494632,150.872046 C227.883906,134.832539 235.45444,121.295397 245.206461,110.260216 C254.958481,99.2250353 266.635067,90.7563025 280.23657,84.8537638 C293.838072,78.9512251 308.850825,76 325.275281,76 C341.699736,76 356.71249,78.9512251 370.313992,84.8537638 C383.915495,90.7563025 395.656238,99.2250353 405.536574,110.260216 C415.416911,121.295397 423.051602,134.832539 428.440876,150.872046 C433.830151,166.911553 436.524748,185.068003 436.524748,205.34194 C436.524748,222.792924 434.535878,238.768034 430.558081,253.267749 C426.580283,267.767463 420.870304,280.53472 413.427972,291.569901 C405.985641,302.605082 397.067809,311.715385 386.674208,318.901084 C376.280607,326.086784 364.668178,331.091035 351.836572,333.913988 C357.739111,343.922641 365.887058,351.108232 376.280659,355.470978 C386.67426,359.833724 398.030061,362.015065 410.348402,362.015065 C415.994309,362.015065 421.062717,361.630122 425.553779,360.860226 C430.044841,360.090329 434.086737,359.063816 437.679586,357.780656 L445.763458,391.27098 Z"></path>
</svg>

<svg width="450" height="450" viewBox="0 0 450 450" xmlns="http://www.w3.org/2000/svg"><title>Favicon</title><path d="M113.17 234.983V179.55c0-7.186.192-15.655.577-25.407.385-9.752.834-18.22 1.348-25.406h-1.54a433.011 433.011 0 0 1-9.624 18.862c-3.336 6.16-6.8 12.575-10.393 19.247l-44.654 68.136h64.286zm72.37 34.26h-30.796v63.131H113.17v-63.131H5v-30.026l97.006-151.669h52.738v147.435h30.796v34.26zm74.68-63.901c0 14.628 1.54 27.844 4.619 39.65 3.08 11.804 7.442 21.813 13.088 30.025 5.646 8.212 12.446 14.5 20.402 18.863 7.956 4.362 16.938 6.544 26.946 6.544 10.009 0 18.99-2.182 26.947-6.544 7.955-4.363 14.756-10.65 20.402-18.863 5.646-8.212 10.008-18.22 13.088-30.026 3.08-11.805 4.62-25.021 4.62-39.65 0-28.229-5.84-50.363-17.516-66.402-11.677-16.04-27.523-24.06-47.54-24.06-20.018 0-35.865 8.02-47.542 24.06-11.676 16.04-17.515 38.173-17.515 66.403zM445.762 391.27c-4.362 2.053-10.008 3.721-16.937 5.004-6.93 1.283-14.756 1.925-23.482 1.925-25.15 0-46.193-5.902-63.131-17.708-16.938-11.805-29.513-26.946-37.725-45.423-13.601-2.31-25.92-6.993-36.955-14.05-11.035-7.058-20.53-16.104-28.486-27.14-7.955-11.035-14.05-23.994-18.285-38.879-4.234-14.885-6.351-31.437-6.351-49.658 0-20.274 2.694-38.43 8.084-54.47 5.389-16.04 12.96-29.577 22.711-40.612 9.752-11.035 21.43-19.504 35.03-25.406C293.839 78.95 308.852 76 325.277 76c16.424 0 31.436 2.951 45.038 8.854 13.601 5.902 25.342 14.371 35.223 25.406 9.88 11.035 17.515 24.573 22.904 40.612 5.39 16.04 8.084 34.196 8.084 54.47 0 17.45-1.99 33.426-5.967 47.926-3.978 14.5-9.688 27.267-17.13 38.302-7.442 11.035-16.36 20.145-26.754 27.331-10.393 7.186-22.006 12.19-34.837 15.013 5.902 10.009 14.05 17.194 24.444 21.557 10.393 4.363 21.75 6.544 34.067 6.544 5.646 0 10.715-.385 15.206-1.155 4.49-.77 8.533-1.796 12.126-3.08l8.083 33.491z" fill="#000" fill-rule="evenodd"/></svg>
